X:1
T:Title
%%score { ( 1 3 ) | 2 }
L:1/8
M:4/4
K:Bb
V:1 treble nm="Grand Piano"
V:3 treble 
V:2 treble 
V:1
 z8[Q:1/4=100] | F6 z2 | [B,EG]2 [B,EB]2 [B,DF]2 z2 | F6 z2 |[M:3/4] [C=EG]2 [Ec]2 c2 | %5
[M:1/4] F>=E |[M:4/4] D2 D2 D2 [Fd]2 | [Fc]2 [FB]2 G2 B2 | F4 c4 |[M:3/4] [DB]6 |[M:1/4] A>B | %11
[M:4/4] c6 z2 | [DB]2 [DB]4 c>d | e6 z2 | [Fd]2 [Fd]4 [Fd]>[Fd] | [Gd]2 [Gc]>[Gc] [GB]2 [EG]>[EG] | %16
 [DF]2 [FB]4 [Gc]2 | [Fd]4 [Ec]4 |[M:3/4] [DB]6 |] %19
V:2
 z4 z2 F>=E | B,,2 B,,2 B,,2 B,,2 | E,2 E,2 B,,2[K:treble] F>=E | B,,2 B,,2 B,,2 B,,2 | %4
[M:3/4] B,,2 [C,G,]2 [F,A,F]2 |[M:1/4] z2 |[M:4/4] [B,,B,]2 [B,,B,]2 [B,,B,]2 [B,,B,]2 | %7
 [C,B,]2 [D,B,]2 [E,B,E]2 [E,G,E]2 | [F,D]4 [F,E]4 |[M:3/4] [B,,F,]6 |[M:1/4] z2 | %11
[M:4/4] [F,A,F]2 [F,A,]2 [F,A,]>[F,A,E] [F,CE]>[F,CE] | [B,,B,]2 [B,,B,]4 z2 | %13
 [E,B,]2 [E,B,]2 [E,B,]>[E,B,] [E,B,]>[E,B,] | [B,,B,]2 [B,,B,]4 [B,,B,]>[B,,B,] | %15
 [E,B,]2 [E,B,]>[E,B,] [E,B,]2 [E,B,]>[E,B,] | [B,,B,]2 [D,B,]4 [E,B,]2 | [F,B,]4 [F,A,]4 | %18
[M:3/4] [B,,F,]6 |] %19
V:3
 x8 | [B,D]2 [B,D]2 [B,D]2 [B,DB]2 | x8 | [B,D]2 [B,D]2 [B,D]2 [B,DB]2 |[M:3/4] x6 |[M:1/4] x2 | %6
[M:4/4] F6 z2 | x8 | x8 |[M:3/4] x6 |[M:1/4] x2 |[M:4/4] z2 F2 F>F G>A | x8 | G2 G2 G>G [GB]>[Gc] | %14
 x8 | x8 | x8 | x8 |[M:3/4] x6 |] %19

